symbolic/22x22/apps/com.github.bleakgrey.transporter.svg

<svg xmlns="http://www.w3.org/2000/svg" width="22" height="22" version="1.1">
 <circle style="opacity:0.2" cx="11" cy="11.5" r="10"/>
 <circle style="fill:#7036a5" cx="11" cy="11" r="10"/>
 <path style="opacity:0.1;fill:#ffffff" d="M 11,1 A 10,10 0 0 0 1,11 10,10 0 0 0 1.01075,11.291 10,10 0 0 1 11,1.5 10,10 0 0 1 20.9895,11.209 10,10 0 0 0 21,11 10,10 0 0 0 11,1 Z"/>
 <path style="opacity:0.3" d="m 11,4 c -3.866,0 -7,3.134 -7,7 0,3.866 3.134,7 7,7 3.866,0 7,-3.134 7,-7 0,-3.866 -3.134,-7 -7,-7 z m -0.701172,1.337891 c 0.08161,-0.0085 0.185238,0.0049 0.267578,0 0.0098,0.03904 -0.05926,0.177589 -0.152344,0.380859 -0.592693,1.294794 -0.626245,2.812551 -0.07617,3.623047 0.09954,0.146948 0.189453,0.286507 0.189453,0.304687 0,0.01817 -0.107136,0.03711 -0.228516,0.03711 C 10.013887,9.683594 9.7443,9.510489 9.19336,9.074219 8.948613,8.880414 8.631083,8.717999 8.507813,8.693359 8.31424,8.654689 8.262139,8.671429 8.01172,8.921875 7.778727,9.154826 7.707032,9.28088 7.707032,9.494141 c 0,0.808716 0.959536,1.449836 2.744141,1.828125 2.42356,0.51366 3.021041,0.975603 3.08789,2.25 0.08393,1.598058 -0.767351,2.803477 -2.630859,3.736328 -0.222422,0.111379 -0.363711,0.153463 -0.457031,0.189453 -0.04135,-0.0037 -0.07205,0.0037 -0.113281,0 -0.01586,-0.04941 -0.03906,-0.16367 -0.03906,-0.380859 0,-0.848777 -0.33377,-1.722371 -0.83789,-2.210938 C 9.325619,14.775087 8.945565,14.49773 8.621098,14.296875 8.296643,14.096032 7.969438,13.863212 7.896488,13.763672 7.775598,13.598486 7.766499,13.496563 7.859378,13.191406 8.02865,12.634074 8.229414,12.32285 8.621097,11.970703 8.826441,11.786085 9.032638,11.632606 9.078128,11.628906 9.123628,11.625206 8.817324,11.531976 8.355472,11.4375 7.893646,11.34284 7.216483,11.143995 6.867191,11.017578 6.22848,10.786469 5.367827,10.302306 5.039065,9.951172 5.025155,9.936292 5.012085,9.925292 5.000005,9.912112 5.471042,8.035796 6.792552,6.4989 8.544927,5.757815 8.91159,5.60273 9.290456,5.495675 9.689458,5.414065 c 0.198745,-0.04062 0.404165,-0.05531 0.609375,-0.07617 z m 5.71875,2.859375 c 0.143276,0.08856 0.683464,1.259169 0.837891,1.830078 0.199379,0.737047 0.184947,2.01196 0,2.74414 -0.07039,0.278672 -0.159443,0.539816 -0.189453,0.572266 -0.03001,0.03245 -0.139563,-0.153996 -0.267578,-0.380859 -0.128029,-0.226827 -0.537105,-0.709773 -0.876954,-1.06836 -0.980964,-1.035115 -1.135518,-1.574279 -0.724609,-2.40039 0.207223,-0.41658 1.109815,-1.365315 1.220703,-1.296875 z"/>
 <path style="opacity:0.2" d="m 11,1.5 v 3 c 3.901527,0 7,3.098473 7,7 h -2 l 1.75,3 1.361328,2.334961 a 10,10 0 0 0 1.87793,-5.625976 10,10 0 0 0 -0.0127,-0.364258 c -0.0022,-0.03331 -0.0053,-0.06639 -0.0078,-0.09961 A 10,10 0 0 0 20.85742,9.822266 c -0.0027,-0.016 -0.006,-0.03189 -0.0088,-0.04785 A 10,10 0 0 0 20.69238,9.076173 C 20.66239,8.955935 20.633906,8.8352695 20.599606,8.7167985 a 10,10 0 0 0 -0.202145,-0.6084 C 20.35754,7.997847 20.320035,7.8860455 20.276367,7.777344 A 10,10 0 0 0 20.019531,7.203125 C 19.967185,7.093463 19.917507,6.9824115 19.861328,6.875 A 10,10 0 0 0 19.565429,6.359375 C 19.49574,6.2435225 19.429659,6.12543 19.355469,6.0126955 A 10,10 0 0 0 19.012695,5.536133 C 18.935794,5.4329885 18.862958,5.326586 18.782226,5.2265625 A 10,10 0 0 0 18.383789,4.772461 C 18.297132,4.6774065 18.214243,4.5789495 18.124023,4.4873045 A 10,10 0 0 0 17.677734,4.0703125 C 17.586881,3.9885995 17.500067,3.9026035 17.40625,3.8242187 A 10,10 0 0 0 16.83789,3.3925781 C 16.766943,3.3413966 16.700256,3.2847011 16.627929,3.2353515 A 10,10 0 0 0 11.999024,1.5498047 c 0,0 -0.001,0 -0.001,0 a 10,10 0 0 0 -0.0029,0 A 10,10 0 0 0 11,1.5 Z M 2.7265625,5.8876955 A 10,10 0 0 0 1,11.5 10,10 0 0 1 1.0107422,11.291016 10,10 0 0 0 11,21 v -2.5 c -3.901527,0 -7,-3.098473 -7,-7 H 6 L 4.25,8.5 Z M 1,11.5 a 10,10 0 0 0 0.023437,0.655274 c 0.00216,0.03331 0.00533,0.06639 0.00781,0.09961 A 10,10 0 0 0 1.041992,12.345703 10,10 0 0 1 1,11.5 Z m 19.958984,0.834961 a 10,10 0 0 1 -0.05664,0.464844 10,10 0 0 0 0.05664,-0.464844 z M 1.1035156,12.850586 a 10,10 0 0 0 0.039063,0.327149 c 0.0027,0.016 0.00601,0.03188 0.00879,0.04785 a 10,10 0 0 0 0.026367,0.116211 10,10 0 0 1 -0.074219,-0.491211 z m 19.7207034,0.483399 a 10,10 0 0 1 -0.0957,0.427734 10,10 0 0 0 0.0957,-0.427734 z M 1.2851563,13.822266 a 10,10 0 0 0 0.022461,0.101562 c 0.029991,0.120239 0.058474,0.240904 0.092773,0.359375 a 10,10 0 0 0 0.00879,0.02637 10,10 0 0 1 -0.1240235,-0.487305 z M 20.58789,14.317383 a 10,10 0 0 1 -0.125976,0.379883 10,10 0 0 0 0.125976,-0.379883 z M 1.5712891,14.798828 a 10,10 0 0 0 0.03125,0.09277 c 0.039921,0.110551 0.077426,0.222353 0.1210937,0.331054 a 10,10 0 0 0 0.014649,0.0332 10,10 0 0 1 -0.1669922,-0.457031 z m 18.6874999,0.461914 a 10,10 0 0 1 -0.161133,0.361328 10,10 0 0 0 0.161133,-0.361328 z M 1.9384765,15.704101 a 10,10 0 0 0 0.041992,0.09277 c 0.052346,0.109662 0.1020237,0.220713 0.1582033,0.328125 a 10,10 0 0 0 0.026367,0.0459 10,10 0 0 1 -0.2265625,-0.466797 z m 17.8945315,0.469727 a 10,10 0 0 1 -0.178711,0.311523 10,10 0 0 0 0.178711,-0.311523 z M 2.397461,16.576172 a 10,10 0 0 0 0.03711,0.06445 c 0.06969,0.115852 0.1357706,0.233945 0.2099609,0.346679 a 10,10 0 0 0 0.03418,0.04687 10,10 0 0 1 -0.2812499,-0.458007 z m 16.921875,0.460937 a 10,10 0 0 1 -0.0498,0.06934 l 0.0039,0.0059 a 10,10 0 0 0 0.0459,-0.0752 z M 2.9873047,17.463867 c 0.076901,0.103144 0.1497371,0.209547 0.2304687,0.30957 a 10,10 0 0 0 0.041016,0.04687 10,10 0 0 1 -0.2714843,-0.356445 z m 0.6113281,0.743164 a 10,10 0 0 0 0.017578,0.02051 c 0.086657,0.09506 0.1695459,0.193512 0.2597656,0.285157 a 10,10 0 0 0 0.054687,0.05078 10,10 0 0 1 -0.3320313,-0.356446 z m 0.6855467,0.6875 a 10,10 0 0 0 0.038085,0.03515 c 0.090853,0.08171 0.1776675,0.167709 0.2714845,0.246093 a 10,10 0 0 0 0.083985,0.06348 10,10 0 0 1 -0.393555,-0.344727 z m 0.7919925,0.648438 a 10,10 0 0 0 0.085937,0.06445 c 0.070947,0.05118 0.1376345,0.107877 0.209961,0.157226 a 10,10 0 0 0 0.098632,0.06055 10,10 0 0 1 -0.39453,-0.282226 z M 5.9628905,20.125 A 10,10 0 0 0 6.3310545,20.335937 10,10 0 0 1 5.9628905,20.125 Z m 0.859375,0.447265 a 10,10 0 0 0 0.4257815,0.19043 10,10 0 0 1 -0.4257815,-0.19043 z M 7.732422,20.938476 A 10,10 0 0 0 8.1933595,21.091797 10,10 0 0 1 7.732422,20.938476 Z M 8.6933595,21.21875 A 10,10 0 0 0 9.167969,21.324219 10,10 0 0 1 8.6933595,21.21875 Z m 0.9384765,0.175781 a 10,10 0 0 0 0.369141,0.05566 c 0.0013,1.28e-4 0.0026,-1.27e-4 0.0039,0 a 10,10 0 0 0 0.147461,0.0078 10,10 0 0 1 -0.520508,-0.06348 z"/>
 <path style="fill:#a85bef" d="m 11,1 v 3 c 3.901527,0 7,3.098473 7,7 h -2 l 1.75,3 1.523437,2.612304 A 10,10 0 0 0 21,11 10,10 0 0 0 20.976562,10.344727 c -0.0022,-0.03331 -0.0053,-0.06639 -0.0078,-0.09961 A 10,10 0 0 0 20.857434,9.322266 c -0.0027,-0.016 -0.006,-0.03189 -0.0088,-0.04785 a 10,10 0 0 0 -0.15625,-0.6982425 c -0.02999,-0.1202385 -0.05847,-0.240904 -0.09277,-0.359375 a 10,10 0 0 0 -0.202145,-0.6084 C 20.35754,7.497847 20.320035,7.3860455 20.276367,7.277344 A 10,10 0 0 0 20.019531,6.703125 C 19.967185,6.593463 19.917507,6.4824115 19.861328,6.375 A 10,10 0 0 0 19.565429,5.859375 C 19.49574,5.7435225 19.429659,5.62543 19.355469,5.5126955 A 10,10 0 0 0 19.012695,5.036133 C 18.935794,4.9329885 18.862958,4.826586 18.782226,4.7265625 A 10,10 0 0 0 18.383789,4.272461 C 18.297132,4.1774065 18.214243,4.0789495 18.124023,3.9873047 A 10,10 0 0 0 17.677734,3.5703125 C 17.586881,3.4885995 17.500067,3.4026035 17.40625,3.3242187 A 10,10 0 0 0 16.83789,2.8925781 C 16.766943,2.8413966 16.700256,2.7847012 16.627929,2.7353515 A 10,10 0 0 0 11.999024,1.0498047 c -3.22e-4,-3.19e-5 -6.5e-4,3.19e-5 -0.001,0 a 10,10 0 0 0 -0.0029,0 A 10,10 0 0 0 11,1 Z M 2.7265625,5.3876955 A 10,10 0 0 0 1,11 10,10 0 0 0 1.023437,11.655274 c 0.00216,0.03331 0.00533,0.06639 0.00781,0.09961 a 10,10 0 0 0 0.1113281,0.922852 c 0.0027,0.016 0.00601,0.03188 0.00879,0.04785 a 10,10 0 0 0 0.15625,0.698242 c 0.029991,0.120238 0.058474,0.240904 0.092773,0.359375 A 10,10 0 0 0 1.602539,14.3916 c 0.039921,0.110552 0.077426,0.222353 0.1210937,0.331055 a 10,10 0 0 0 0.2568361,0.57422 c 0.052346,0.109662 0.1020235,0.220713 0.1582031,0.328125 a 10,10 0 0 0 0.2958984,0.515625 c 0.06969,0.115852 0.1357706,0.233945 0.209961,0.346679 a 10,10 0 0 0 0.3427734,0.476563 c 0.076901,0.103144 0.1497371,0.209547 0.2304687,0.30957 a 10,10 0 0 0 0.3984375,0.454102 c 0.086657,0.09505 0.169546,0.193511 0.2597656,0.285156 a 10,10 0 0 0 0.446289,0.416992 c 0.090853,0.08171 0.1776675,0.167709 0.2714845,0.246094 a 10,10 0 0 0 0.5683595,0.431641 c 0.070947,0.05118 0.1376345,0.107877 0.209961,0.157226 a 10,10 0 0 0 4.6289065,1.685547 c 0.0013,1.28e-4 0.0026,-1.27e-4 0.0039,0 A 10,10 0 0 0 11,21 V 18 C 7.098473,18 4,14.901527 4,11 H 6 L 4.25,8 Z"/>
 <path style="opacity:0.2;fill:#ffffff" d="m 11,1 v 0.5 a 10,10 0 0 1 0.995117,0.049805 10,10 0 0 1 0.003,0 c 0,0 10e-4,0 10e-4,0 a 10,10 0 0 1 4.628906,1.6855468 c 0.07233,0.04935 0.139014,0.1060452 0.209961,0.1572266 A 10,10 0 0 1 17.4063,3.8242192 c 0.09382,0.078385 0.180631,0.1643808 0.271484,0.2460938 a 10,10 0 0 1 0.446289,0.416992 c 0.09022,0.091645 0.173109,0.190102 0.259766,0.2851565 a 10,10 0 0 1 0.398437,0.4541015 c 0.08073,0.1000235 0.153568,0.206426 0.230469,0.3095705 a 10,10 0 0 1 0.342774,0.4765625 c 0.07419,0.1127345 0.140271,0.230827 0.20996,0.3466795 A 10,10 0 0 1 19.861328,6.875 c 0.05618,0.1074115 0.105857,0.218463 0.158203,0.328125 a 10,10 0 0 1 0.256836,0.574219 c 0.04367,0.1087015 0.08117,0.220503 0.121094,0.3310545 a 10,10 0 0 1 0.202148,0.6083985 c 0.0343,0.118471 0.06278,0.2391365 0.09277,0.359375 a 10,10 0 0 1 0.15625,0.698242 c 0.0028,0.01596 0.0061,0.03186 0.0088,0.04785 a 10,10 0 0 1 0.111328,0.922852 c 0.0025,0.03322 0.0057,0.06629 0.0078,0.09961 a 10,10 0 0 1 0.0127,0.366211 A 10,10 0 0 0 21,11 10,10 0 0 0 20.976562,10.344727 c -0.0022,-0.03331 -0.0053,-0.06639 -0.0078,-0.09961 A 10,10 0 0 0 20.857434,9.322266 c -0.0027,-0.016 -0.006,-0.03189 -0.0088,-0.04785 a 10,10 0 0 0 -0.15625,-0.6982425 c -0.02999,-0.1202385 -0.05847,-0.240904 -0.09277,-0.359375 a 10,10 0 0 0 -0.202145,-0.6084 C 20.35754,7.497847 20.320035,7.3860455 20.276367,7.277344 A 10,10 0 0 0 20.019531,6.703125 C 19.967185,6.593463 19.917507,6.4824115 19.861328,6.375 A 10,10 0 0 0 19.565429,5.859375 C 19.49574,5.7435225 19.429659,5.62543 19.355469,5.5126955 A 10,10 0 0 0 19.012695,5.036133 C 18.935794,4.9329885 18.862958,4.826586 18.782226,4.7265625 A 10,10 0 0 0 18.383789,4.272461 C 18.297132,4.1774065 18.214243,4.0789495 18.124023,3.9873047 A 10,10 0 0 0 17.677734,3.5703125 C 17.586881,3.4885995 17.500067,3.4026035 17.40625,3.3242187 A 10,10 0 0 0 16.83789,2.8925781 C 16.766943,2.8413966 16.700256,2.7847012 16.627929,2.7353515 A 10,10 0 0 0 11.999024,1.0498047 c 0,0 -0.001,0 -0.001,0 a 10,10 0 0 0 -0.0029,0 A 10,10 0 0 0 11,1 Z M 2.7265625,5.3876955 A 10,10 0 0 0 1,11 10,10 0 0 0 1.0107422,11.289063 10,10 0 0 1 2.7265625,5.8876955 L 4.25,8.5 5.708008,11 H 6 L 4.25,8 Z M 16,11 16.291992,11.5 H 18 C 18,11.331051 17.986045,11.165751 17.97461,11 Z M 4,11.5 c 0,3.901527 3.098473,7 7,7 V 18 C 7.267422,18 4.2780005,15.161922 4.0253905,11.5 Z"/>
</svg>

<svg xmlns="http://www.w3.org/2000/svg" width="22" height="22"><circle style="opacity:.2" cx="11" cy="11.5" r="10"/><circle style="fill:#7036a5" cx="11" cy="11" r="10"/><path style="opacity:.1;fill:#fff" d="M11 1A10 10 0 0 0 1 11a10 10 0 0 0 .01.291A10 10 0 0 1 11 1.5a10 10 0 0 1 9.99 9.709A10 10 0 0 0 21 11 10 10 0 0 0 11 1z"/><path style="opacity:.3" d="M11 4a7 7 0 1 0 0 14 7 7 0 0 0 0-14zm-.701 1.338c.081-.009.185.005.267 0 .01.039-.059.177-.152.38-.593 1.296-.626 2.813-.076 3.624.1.147.19.286.19.304 0 .019-.108.038-.23.038-.284 0-.554-.174-1.105-.61-.244-.194-.562-.356-.685-.38-.194-.04-.246-.023-.496.228-.233.233-.305.359-.305.572 0 .809.96 1.45 2.744 1.828 2.424.514 3.021.976 3.088 2.25.084 1.598-.767 2.804-2.63 3.737-.223.111-.365.153-.458.189-.041-.004-.072.004-.113 0a1.337 1.337 0 0 1-.04-.38c0-.85-.333-1.723-.837-2.212-.135-.13-.515-.408-.84-.61-.324-.2-.652-.433-.725-.532-.12-.166-.13-.267-.037-.573.17-.557.37-.868.762-1.22.205-.185.412-.338.457-.342.046-.004-.26-.097-.723-.191a13.022 13.022 0 0 1-1.488-.42c-.639-.232-1.5-.716-1.828-1.067L5 9.912a6.13 6.13 0 0 1 3.545-4.154 5.99 5.99 0 0 1 1.144-.344c.2-.04.405-.055.61-.076zm5.719 2.86c.143.088.683 1.258.837 1.83.2.736.185 2.011 0 2.743-.07.28-.159.54-.189.573-.03.032-.14-.154-.268-.381s-.537-.71-.877-1.068c-.98-1.036-1.135-1.575-.724-2.4.207-.417 1.11-1.366 1.22-1.298z"/><path style="opacity:.2" d="M11 1.5v3c3.902 0 7 3.098 7 7h-2l1.75 3 1.361 2.335a10 10 0 0 0 1.878-5.626 10 10 0 0 0-.012-.364l-.008-.1a10 10 0 0 0-.112-.923l-.008-.048a10 10 0 0 0-.157-.698c-.03-.12-.058-.24-.092-.36a10 10 0 0 0-.203-.608c-.04-.11-.077-.222-.12-.33a10 10 0 0 0-.257-.575c-.053-.11-.102-.22-.159-.328a10 10 0 0 0-.296-.516c-.07-.115-.135-.234-.21-.346a10 10 0 0 0-.342-.477c-.077-.103-.15-.21-.23-.31a10 10 0 0 0-.4-.454c-.086-.095-.169-.193-.259-.285a10 10 0 0 0-.446-.417c-.091-.081-.178-.167-.272-.246a10 10 0 0 0-.568-.431c-.071-.052-.138-.108-.21-.158a10 10 0 0 0-4.629-1.685h-.001a10 10 0 0 0-.003 0A10 10 0 0 0 11 1.5zM2.727 5.888A10 10 0 0 0 1 11.5a10 10 0 0 1 .01-.209A10 10 0 0 0 11 21v-2.5c-3.902 0-7-3.098-7-7h2l-1.75-3zM1 11.5a10 10 0 0 0 .023.655l.008.1a10 10 0 0 0 .011.09A10 10 0 0 1 1 11.5zm19.959.835a10 10 0 0 1-.057.465 10 10 0 0 0 .057-.465zm-19.855.516a10 10 0 0 0 .039.327l.008.048a10 10 0 0 0 .027.116 10 10 0 0 1-.074-.491zm19.72.483a10 10 0 0 1-.095.428 10 10 0 0 0 .095-.428zm-19.539.488a10 10 0 0 0 .023.102c.03.12.058.24.092.36a10 10 0 0 0 .01.026 10 10 0 0 1-.125-.488zm19.303.495a10 10 0 0 1-.126.38 10 10 0 0 0 .126-.38zM1.57 14.8a10 10 0 0 0 .032.093c.04.11.077.222.12.33a10 10 0 0 0 .015.034 10 10 0 0 1-.167-.457zm18.688.462a10 10 0 0 1-.161.361 10 10 0 0 0 .16-.361zm-18.32.443a10 10 0 0 0 .041.093c.053.11.102.22.159.328a10 10 0 0 0 .026.046 10 10 0 0 1-.227-.467zm17.894.47a10 10 0 0 1-.179.311 10 10 0 0 0 .179-.311zm-17.436.402a10 10 0 0 0 .038.065c.07.115.135.234.21.346a10 10 0 0 0 .034.047 10 10 0 0 1-.282-.458zm16.922.461a10 10 0 0 1-.05.07l.004.005a10 10 0 0 0 .046-.075zm-16.332.427c.077.103.15.21.23.31a10 10 0 0 0 .042.046 10 10 0 0 1-.272-.356zm.612.743a10 10 0 0 0 .017.02c.087.096.17.194.26.286a10 10 0 0 0 .055.05 10 10 0 0 1-.332-.356zm.685.688a10 10 0 0 0 .038.035c.091.081.178.167.272.246a10 10 0 0 0 .084.063 10 10 0 0 1-.394-.344zm.792.648a10 10 0 0 0 .086.064c.071.052.138.108.21.158a10 10 0 0 0 .099.06 10 10 0 0 1-.395-.282zm.887.582a10 10 0 0 0 .368.21 10 10 0 0 1-.368-.21zm.86.447a10 10 0 0 0 .425.19 10 10 0 0 1-.426-.19zm.91.366a10 10 0 0 0 .46.154 10 10 0 0 1-.46-.154zm.96.28a10 10 0 0 0 .475.106 10 10 0 0 1-.475-.105zm.939.177a10 10 0 0 0 .369.055h.004a10 10 0 0 0 .147.008 10 10 0 0 1-.52-.063z"/><path style="fill:#a85bef" d="M11 1v3c3.902 0 7 3.098 7 7h-2l1.75 3 1.523 2.612A10 10 0 0 0 21 11a10 10 0 0 0-.023-.655l-.008-.1a10 10 0 0 0-.112-.923l-.008-.048a10 10 0 0 0-.157-.698c-.03-.12-.058-.24-.092-.36a10 10 0 0 0-.203-.608c-.04-.11-.077-.222-.12-.33a10 10 0 0 0-.257-.575c-.053-.11-.102-.22-.159-.328a10 10 0 0 0-.296-.516c-.07-.115-.135-.234-.21-.346a10 10 0 0 0-.342-.477c-.077-.103-.15-.21-.23-.31a10 10 0 0 0-.4-.454c-.086-.095-.169-.193-.259-.285a10 10 0 0 0-.446-.417c-.091-.081-.178-.167-.272-.246a10 10 0 0 0-.568-.431c-.071-.052-.138-.108-.21-.158a10 10 0 0 0-4.629-1.685h-.001a10 10 0 0 0-.003 0A10 10 0 0 0 11 1zM2.727 5.388A10 10 0 0 0 1 11a10 10 0 0 0 .023.655l.008.1a10 10 0 0 0 .112.923l.008.048a10 10 0 0 0 .157.698c.03.12.058.24.092.36a10 10 0 0 0 .203.608c.04.11.077.222.12.33a10 10 0 0 0 .257.575c.053.11.102.22.159.328a10 10 0 0 0 .296.516c.07.115.135.234.21.346a10 10 0 0 0 .342.477c.077.103.15.21.23.31a10 10 0 0 0 .4.454c.086.095.169.193.259.285a10 10 0 0 0 .446.417c.091.081.178.167.272.246a10 10 0 0 0 .568.431c.071.052.138.108.21.158a10 10 0 0 0 4.629 1.685h.004A10 10 0 0 0 11 21v-3c-3.902 0-7-3.098-7-7h2L4.25 8z"/><path style="opacity:.2;fill:#fff" d="M11 1v.5a10 10 0 0 1 .995.05 10 10 0 0 1 .003 0H12a10 10 0 0 1 4.629 1.685c.072.05.139.106.21.158a10 10 0 0 1 .568.431c.094.079.18.165.272.246a10 10 0 0 1 .446.417c.09.092.173.19.26.285a10 10 0 0 1 .398.455c.081.1.154.206.23.31a10 10 0 0 1 .344.476c.074.112.14.23.21.346a10 10 0 0 1 .295.516c.057.107.106.218.159.328a10 10 0 0 1 .256.574c.044.109.082.22.121.331a10 10 0 0 1 .203.609c.034.118.062.239.092.36a10 10 0 0 1 .157.697l.008.048a10 10 0 0 1 .112.923l.008.1a10 10 0 0 1 .012.366A10 10 0 0 0 21 11a10 10 0 0 0-.023-.655l-.008-.1a10 10 0 0 0-.112-.923l-.008-.048a10 10 0 0 0-.157-.698c-.03-.12-.058-.24-.092-.36a10 10 0 0 0-.203-.608c-.04-.11-.077-.222-.12-.33a10 10 0 0 0-.257-.575c-.053-.11-.102-.22-.159-.328a10 10 0 0 0-.296-.516c-.07-.115-.135-.234-.21-.346a10 10 0 0 0-.342-.477c-.077-.103-.15-.21-.23-.31a10 10 0 0 0-.4-.454c-.086-.095-.169-.193-.259-.285a10 10 0 0 0-.446-.417c-.091-.081-.178-.167-.272-.246a10 10 0 0 0-.568-.431c-.071-.052-.138-.108-.21-.158a10 10 0 0 0-4.629-1.685h-.001a10 10 0 0 0-.003 0A10 10 0 0 0 11 1zM2.727 5.388A10 10 0 0 0 1 11a10 10 0 0 0 .01.29 10 10 0 0 1 1.717-5.402L4.25 8.5 5.708 11H6L4.25 8zM16 11l.292.5H18c0-.169-.014-.334-.025-.5zm-12 .5c0 3.902 3.098 7 7 7V18a6.945 6.945 0 0 1-6.975-6.5z"/></svg>
